src/assets/icons/filters.svg

<svg width="20" height="18" xmlns="http://www.w3.org/2000/svg"><g fill="#90918D" fill-rule="evenodd"><path d="M5.753 4.796a1.81 1.81 0 01-1.807-1.807 1.81 1.81 0 011.807-1.808 1.81 1.81 0 011.809 1.808 1.81 1.81 0 01-1.809 1.807zM19.5 2.489H8.511A2.808 2.808 0 005.753.181c-1.377 0-2.52.998-2.757 2.308H.5a.5.5 0 100 1h2.496a2.807 2.807 0 002.757 2.307 2.809 2.809 0 002.758-2.307H19.5a.5.5 0 000-1zM14.831 10.92a1.81 1.81 0 01-1.808-1.808 1.81 1.81 0 011.808-1.807 1.81 1.81 0 011.808 1.807 1.81 1.81 0 01-1.808 1.808zM19.5 8.612h-1.912a2.807 2.807 0 00-2.757-2.307c-1.377 0-2.52.998-2.757 2.307H.5a.5.5 0 000 1h11.574a2.807 2.807 0 002.757 2.308c1.377 0 2.52-.998 2.757-2.308H19.5a.5.5 0 100-1zM9.215 17a1.81 1.81 0 01-1.807-1.808c0-.997.811-1.807 1.807-1.807.997 0 1.808.81 1.808 1.807A1.81 1.81 0 019.215 17zM19.5 14.692h-7.527a2.81 2.81 0 00-2.758-2.307c-1.377 0-2.52.998-2.757 2.307H.5a.5.5 0 000 1h5.958A2.807 2.807 0 009.215 18a2.81 2.81 0 002.758-2.308H19.5a.5.5 0 100-1z"/></g></svg>

<?xml version="1.0" encoding="UTF-8"?>
<svg width="20px" height="18px" viewBox="0 0 20 18" version="1.1" xmlns="http://www.w3.org/2000/svg" xmlns:xlink="http://www.w3.org/1999/xlink">
    <!-- Generator: Sketch 52.5 (67469) - http://www.bohemiancoding.com/sketch -->
    <title>filters</title>
    <desc>Created with Sketch.</desc>
    <g id="filters" stroke="none" stroke-width="1" fill="none" fill-rule="evenodd">
        <path d="M5.753,4.796 C4.757,4.796 3.946,3.985 3.946,2.989 C3.946,1.992 4.757,1.181 5.753,1.181 C6.75,1.181 7.562,1.992 7.562,2.989 C7.562,3.985 6.75,4.796 5.753,4.796 Z M19.5,2.489 L8.511,2.489 C8.274,1.179 7.13,0.181 5.753,0.181 C4.376,0.181 3.233,1.179 2.996,2.489 L0.5,2.489 C0.224,2.489 0,2.712 0,2.989 C0,3.265 0.224,3.489 0.5,3.489 L2.996,3.489 C3.233,4.798 4.376,5.796 5.753,5.796 C7.13,5.796 8.274,4.798 8.511,3.489 L19.5,3.489 C19.776,3.489 20,3.265 20,2.989 C20,2.712 19.776,2.489 19.5,2.489 Z" id="Fill-1" fill="#90918D"></path>
        <path d="M14.831,10.92 C13.834,10.92 13.023,10.109 13.023,9.112 C13.023,8.116 13.834,7.305 14.831,7.305 C15.828,7.305 16.639,8.116 16.639,9.112 C16.639,10.109 15.828,10.92 14.831,10.92 Z M19.5,8.612 L17.588,8.612 C17.351,7.303 16.208,6.305 14.831,6.305 C13.454,6.305 12.311,7.303 12.074,8.612 L0.5,8.612 C0.224,8.612 0,8.836 0,9.112 C0,9.389 0.224,9.612 0.5,9.612 L12.074,9.612 C12.311,10.922 13.454,11.92 14.831,11.92 C16.208,11.92 17.351,10.922 17.588,9.612 L19.5,9.612 C19.776,9.612 20,9.389 20,9.112 C20,8.836 19.776,8.612 19.5,8.612 Z" id="Fill-3" fill="#90918D"></path>
        <path d="M9.215,17 C8.219,17 7.408,16.19 7.408,15.192 C7.408,14.195 8.219,13.385 9.215,13.385 C10.212,13.385 11.023,14.195 11.023,15.192 C11.023,16.19 10.212,17 9.215,17 Z M19.5,14.692 L11.973,14.692 C11.735,13.383 10.592,12.385 9.215,12.385 C7.838,12.385 6.695,13.383 6.458,14.692 L0.5,14.692 C0.224,14.692 0,14.916 0,15.192 C0,15.469 0.224,15.692 0.5,15.692 L6.458,15.692 C6.695,17.002 7.838,18 9.215,18 C10.592,18 11.735,17.002 11.973,15.692 L19.5,15.692 C19.776,15.692 20,15.469 20,15.192 C20,14.916 19.776,14.692 19.5,14.692 Z" id="Fill-4" fill="#90918D"></path>
    </g>
</svg>
